lib/brands/icons/google-podcast.svg

<svg xmlns="http://www.w3.org/2000/svg" fill="none" aria-hidden="true" viewBox="0 0 48 48"><g id="google-podcast-Icon"><g id="Group"><path id="Vector" fill="#0066D9" d="M10.501 22.7727V25.2273C10.501 26.4699 9.49361 27.4773 8.25098 27.4773C7.00834 27.4773 6.00098 26.4699 6.00098 25.2273V22.7727C6.00098 21.5301 7.00834 20.5227 8.25098 20.5227C9.49361 20.5227 10.501 21.5301 10.501 22.7727Z"/><path id="Vector_2" fill="#4285F4" d="M37.5019 22.8367C37.5013 22.8154 37.501 22.794 37.501 22.7727C37.501 21.5301 38.5083 20.5227 39.751 20.5227C40.9936 20.5227 42.001 21.5301 42.001 22.7727C42.001 22.7941 42.0007 22.8155 42.0001 22.8367H42.001V25.2912H42.0001C41.9663 26.5043 40.9722 27.4772 39.751 27.4772C38.5297 27.4772 37.5357 26.5043 37.5019 25.2912H37.501V22.8366H37.5019V22.8367Z"/><path id="Vector_3" fill="#EA4335" d="M18.2734 30.1364V32.5909C18.2734 33.8336 17.2661 34.8409 16.0234 34.8409C14.7807 34.8409 13.7734 33.8336 13.7734 32.5909V30.1363C13.7734 28.8938 14.7808 27.8863 16.0234 27.8863C17.2661 27.8863 18.2734 28.8938 18.2734 30.1363V30.1364ZM18.2734 15.4091V23.4375H18.2729C18.2457 24.6565 17.249 25.6364 16.0234 25.6364C14.7979 25.6364 13.8012 24.6565 13.7741 23.4375H13.7734V15.4091C13.7734 14.1665 14.7808 13.1591 16.0234 13.1591C17.2661 13.1591 18.2734 14.1665 18.2734 15.4091V15.4091Z"/><path id="Vector_4" fill="#34A853" d="M29.7285 17.8636C29.7285 19.1063 30.7358 20.1136 31.9785 20.1136C33.2212 20.1136 34.2285 19.1063 34.2285 17.8636V15.4091C34.2285 14.1665 33.2211 13.1591 31.9785 13.1591C30.7359 13.1591 29.7285 14.1665 29.7285 15.4091V17.8636Z"/><path id="Vector_5" fill="#FAB908" d="M21.751 10.7046C21.751 11.9472 22.7583 12.9546 24.001 12.9546C25.2436 12.9546 26.251 11.9472 26.251 10.7046V8.25C26.251 7.00737 25.2436 6 24.001 6C22.7583 6 21.751 7.00737 21.751 8.25V10.7046ZM21.751 37.2954C21.751 36.0528 22.7583 35.0454 24.001 35.0454C25.2436 35.0454 26.251 36.0528 26.251 37.2954V39.75C26.251 40.9926 25.2436 42 24.001 42C22.7583 42 21.751 40.9926 21.751 39.75V37.2954Z"/><path id="Vector_6" fill="#34A853" d="M29.7285 24.6136C29.7285 23.371 30.7358 22.3636 31.9785 22.3636C33.2212 22.3636 34.2285 23.371 34.2285 24.6136V32.5909C34.2285 33.8336 33.2211 34.8409 31.9785 34.8409C30.7359 34.8409 29.7285 33.8336 29.7285 32.5909V24.6136Z"/><path id="Vector_7" fill="#FAB908" d="M26.251 17.4546V30.5454C26.251 31.7881 25.2436 32.7954 24.001 32.7954C22.7583 32.7954 21.751 31.7881 21.751 30.5454V17.4546C21.751 16.2119 22.7583 15.2046 24.001 15.2046C25.2436 15.2046 26.251 16.2119 26.251 17.4546Z"/></g></g></svg>

<svg xmlns="http://www.w3.org/2000/svg" fill="none" aria-hidden="true" viewBox="0 0 48 48"><path fill="#0066D9" d="M10.501 22.773v2.454a2.25 2.25 0 0 1-4.5 0v-2.454a2.25 2.25 0 0 1 4.5 0Z"/><path fill="#4285F4" d="m37.502 22.837-.001-.064a2.25 2.25 0 1 1 4.5.064v2.454a2.25 2.25 0 0 1-4.5 0v-2.454Z"/><path fill="#EA4335" d="M18.273 30.136v2.455a2.25 2.25 0 1 1-4.5 0v-2.455a2.25 2.25 0 0 1 4.5 0Zm0-14.727v8.028a2.25 2.25 0 0 1-4.499 0V15.41a2.25 2.25 0 0 1 4.5 0Z"/><path fill="#34A853" d="M29.729 17.864a2.25 2.25 0 1 0 4.5 0v-2.455a2.25 2.25 0 0 0-4.5 0v2.455Z"/><path fill="#FAB908" d="M21.751 10.705a2.25 2.25 0 1 0 4.5 0V8.25a2.25 2.25 0 0 0-4.5 0v2.455Zm0 26.59a2.25 2.25 0 1 1 4.5 0v2.455a2.25 2.25 0 0 1-4.5 0v-2.455Z"/><path fill="#34A853" d="M29.729 24.614a2.25 2.25 0 1 1 4.5 0v7.977a2.25 2.25 0 1 1-4.5 0v-7.977Z"/><path fill="#FAB908" d="M26.251 17.455v13.09a2.25 2.25 0 1 1-4.5 0v-13.09a2.25 2.25 0 1 1 4.5 0Z"/></svg>
